X:1
M:4/4
K:D
L:1/8
C:Paul Spencer
D>E |FFF>F EEFE |DDDD C3C |DDDE G<FD>D |CCCB, C2FF |
FFFE F<C2C |DDB,>D E3E |DDDC DB,2B, |DDB,<B, A,4 |
D<CD>B, GF2z/2C/2 |DC^G,<A, B,4 |G>GFE ^G2FE |FCC>B C3F |
F>FED E>FED |F>AGF E3A, |A,A,B,>A, CB,EE |ECE>F E4 |z7 E |:
F<FFF ^G^G^G^G |AAFD C2CC |DDDE G<FD>D |CCCB, C2FF |
FFFE F<C2C |DDB,>D E3E |DDDC DB,2B, |DDB,<B, A,4 |
D<CD>B, GF2z/2C/2 |DC^G,<A, B,4 |G>GFE ^G2FE |FCC>B C3F |
F>FED E>FED |F>AGF E3A, |A,A,B,>A, CB,EE |ECE>F E4 |[1z7 E :|[2z7 |
